X:1
T:Nellie Baker's Reel
M:4/4
L:1/8
R:reel
C:Doug Asherman
N:For Nellie Louise Baker
N:Copyright 2003 D. Asherman
N:Contact: doug@musanon.com
K:G
ef|:g2 ed BAGB|A2 AG ABef|gfed BAGB|A2 AG A2 ef|gage dcBc|
A2 AG ABef|gfed BAGB|1 A2 AG A2 ef:|2 A2 AG A2||
e^g|:a2 a^g a2 ab| c'bae gecd|eged cBAc|B2 BA B2 e^g|
a2 a^g a2 ab| c'bae =fede
|dcBc BAGB|1 A2 A^G A2 e^g:|2 A2 A^G A4||
